img/index/home/paint-line-hf.svg

<svg width="1920" height="889" viewBox="0 0 1920 889" fill="none" xmlns="http://www.w3.org/2000/svg">
<path d="M1920 0V816.61C1904.18 818.079 1888.29 818.677 1872.41 818.4C1794.2 817.01 1752.41 794.88 1738.3 813.11C1726.84 827.94 1744.88 855.02 1727.3 872.86C1723.63 876.473 1719.19 879.194 1714.3 880.81C1709.11 881.162 1703.98 879.619 1699.84 876.47C1683.77 864.23 1709.09 824.62 1696.23 808.47C1676.56 783.87 1595.3 848.88 1524.71 817.72C1513.77 812.89 1506.4 807.22 1489.05 802.72C1478.43 799.95 1428.51 786.52 1407.05 809.83C1386.05 832.7 1403.61 882.28 1385.62 888.09C1382.21 889.045 1378.56 888.714 1375.38 887.16C1356.38 877.22 1374.79 821.99 1357.67 814.49C1356.34 813.938 1354.92 813.653 1353.48 813.653C1352.04 813.653 1350.62 813.938 1349.29 814.49C1337.15 819.74 1342.73 849.07 1331.59 852.69C1330.07 853.14 1328.45 853.14 1326.93 852.69C1315.7 849.77 1319.16 827.27 1307.37 815.42C1299.85 807.87 1289.96 808.51 1275.62 807.58C1242.48 805.44 1233.34 798.22 1206.14 793.76C1155.97 785.52 1096.65 795.25 1066.28 798.76C980.95 808.62 980.2 786.07 874.89 786.46C792.75 786.77 658.24 818.96 658.24 818.96C460.17 867.6 257.88 786.06 244.61 829.38C240.54 842.68 253.77 867.13 241.41 878.92C239.088 880.955 236.367 882.482 233.42 883.403C230.474 884.325 227.367 884.62 224.3 884.27C216.45 883.33 211.5 877.98 210.4 876.78C198.47 863.89 210.25 847.04 203.62 836.02C191.42 815.71 133.07 843.14 59.38 835.24C39.1709 833.063 19.2597 828.687 0 822.19L0 0H1920Z" fill="#F79E60"/>
</svg>

<svg id="Layer_2" data-name="Layer 2" xmlns="http://www.w3.org/2000/svg" viewBox="0 0 1920 1080"><defs><style>.cls-1{fill:#f59552;}</style></defs><path class="cls-1" d="M1920,0V816.61a433,433,0,0,1-47.59,1.79c-78.21-1.39-120-23.52-134.11-5.29-11.46,14.83,6.58,41.91-11,59.75a33.5,33.5,0,0,1-13,7.95,21.47,21.47,0,0,1-14.46-4.34c-16.07-12.24,9.25-51.85-3.61-68-19.67-24.6-100.93,40.41-171.52,9.25-10.94-4.83-18.31-10.5-35.66-15-10.62-2.77-60.54-16.2-82,7.11-21,22.87-3.44,72.45-21.43,78.26a14.46,14.46,0,0,1-10.24-.93c-19-9.94-.59-65.17-17.71-72.67a10.91,10.91,0,0,0-8.38,0c-12.14,5.25-6.56,34.58-17.7,38.2a8.21,8.21,0,0,1-4.66,0c-11.23-2.92-7.77-25.42-19.56-37.27-7.52-7.55-17.41-6.91-31.75-7.84-33.14-2.14-42.28-9.36-69.48-13.82-50.17-8.24-109.49,1.49-139.86,5-85.33,9.86-86.08-12.69-191.39-12.3-82.14.31-216.65,32.5-216.65,32.5-198.07,48.64-400.36-32.9-413.63,10.42-4.07,13.3,9.16,37.75-3.2,49.54a22.15,22.15,0,0,1-17.11,5.35c-7.85-.94-12.8-6.29-13.9-7.49-11.93-12.89-.15-29.74-6.78-40.76-12.2-20.31-70.55,7.12-144.24-.78A279.39,279.39,0,0,1,0,822.19V0Z"/></svg>
